icons/1_Primary/CalorieTracker.io.svg

<svg width="1024" height="1024" viewBox="0 0 1024 1024" fill="none" xmlns="http://www.w3.org/2000/svg">
<g clip-path="url(#clip0_2_1764)">
<path d="M512 1024C794.77 1024 1024 794.77 1024 512C1024 229.23 794.77 0 512 0C229.23 0 0 229.23 0 512C0 794.77 229.23 1024 512 1024Z" fill="#9ABEFF"/>
<path d="M471.11 250H555.2C557.761 250.868 559.872 252.716 561.07 255.14C574.403 278.293 587.76 301.437 601.14 324.57C601.961 325.991 602.372 327.612 602.326 329.252C602.28 330.892 601.779 332.487 600.88 333.86C587.35 357.21 573.93 380.64 560.35 403.98C558.53 407.42 554.35 408.41 550.79 408.19C524.49 408.003 498.19 407.92 471.89 407.94C470.28 408.005 468.685 407.606 467.295 406.79C465.905 405.975 464.779 404.777 464.05 403.34C450.683 380.16 437.297 356.97 423.89 333.77C422.956 332.403 422.445 330.791 422.42 329.136C422.395 327.481 422.858 325.854 423.75 324.46C437.21 301.127 450.683 277.793 464.17 254.46C464.848 253.184 465.842 252.104 467.057 251.323C468.272 250.542 469.668 250.086 471.11 250ZM464 620.7C450.6 643.86 437.217 667.037 423.85 690.23C422.925 691.594 422.417 693.199 422.391 694.848C422.364 696.496 422.819 698.116 423.7 699.51C436.88 722.42 450.17 745.29 463.34 768.21C464.78 771.3 467.57 773.89 471.14 773.99H555.3C557.54 773.176 559.423 771.601 560.62 769.54C574.14 746.207 587.63 722.853 601.09 699.48C601.927 698.049 602.347 696.413 602.305 694.756C602.262 693.099 601.759 691.486 600.85 690.1C587.33 666.78 573.93 643.39 560.38 620.1C558.58 616.63 554.45 615.59 550.84 615.82C524.56 615.99 498.28 616.12 471.98 616.06C470.343 615.972 468.715 616.365 467.298 617.189C465.88 618.013 464.734 619.234 464 620.7ZM441.66 413.43L401.58 344C400.19 341.29 397.44 338.87 394.24 339H370.57C351.13 339.1 331.7 339 312.26 339.05C310.694 339.017 309.15 339.428 307.808 340.237C306.466 341.046 305.382 342.219 304.68 343.62L264.16 413.84C263.373 415.198 262.984 416.751 263.039 418.32C263.094 419.889 263.59 421.41 264.47 422.71C277.937 446.043 291.413 469.377 304.9 492.71C305.636 494.031 306.719 495.127 308.032 495.878C309.345 496.628 310.838 497.006 312.35 496.97C331.48 497.08 350.61 496.85 369.72 497.09C377.21 497.44 384.72 497.09 392.2 497.24C395.57 497.37 399.25 496.18 400.95 493.06C414.59 469.553 428.187 446.023 441.74 422.47C442.584 421.11 443.025 419.539 443.011 417.938C442.996 416.338 442.528 414.775 441.66 413.43ZM441 605.77C427.667 628.983 414.293 652.167 400.88 675.32C400.178 676.798 399.076 678.049 397.699 678.933C396.323 679.817 394.726 680.297 393.09 680.32C385.56 680.45 378.01 680.32 370.48 680.32C350.79 679.84 331.07 680.32 311.37 680.08C309.906 680.064 308.473 679.658 307.218 678.904C305.963 678.15 304.932 677.075 304.23 675.79C290.73 652.457 277.253 629.123 263.8 605.79C262.897 604.411 262.416 602.798 262.416 601.15C262.416 599.502 262.897 597.889 263.8 596.51C277.133 573.37 290.5 550.227 303.9 527.08C304.557 525.645 305.607 524.425 306.93 523.563C308.252 522.701 309.792 522.232 311.37 522.21C327.21 522.12 343.04 522.21 358.88 522.21H370.46C377.05 522.27 383.64 522.21 390.22 522.21H394.21C397.21 522.21 399.5 524.48 400.86 526.91C414.17 550.06 427.58 573.16 440.86 596.31C441.806 597.7 442.323 599.338 442.348 601.019C442.373 602.7 441.904 604.352 441 605.77ZM309.66 585.17C304.43 587.69 303.42 595.66 308.06 599.25C312.74 603.53 321.42 600.25 321.84 593.87C322.92 587.46 315.38 582 309.64 585.17H309.66ZM335.18 554.36C329.11 556.36 327.91 565.51 333.18 569.01C337.69 572.63 345.27 570.01 346.37 564.27C348.39 558 341.17 551.65 335.16 554.36H335.18ZM601.18 515.23C587.713 538.563 574.23 561.913 560.73 585.28C559.34 587.63 556.9 589.71 554.06 589.75H530.33C510.88 589.65 491.44 589.75 471.99 589.69C470.431 589.759 468.883 589.388 467.524 588.621C466.164 587.854 465.047 586.721 464.3 585.35C450.76 561.943 437.237 538.527 423.73 515.1C422.883 513.732 422.448 512.15 422.477 510.541C422.505 508.933 422.996 507.367 423.89 506.03L464 436.46C464.644 435.128 465.632 433.993 466.864 433.174C468.095 432.354 469.523 431.88 471 431.8C490.42 431.64 509.86 431.91 529.28 431.67C536.78 431.29 544.28 431.62 551.82 431.5C555.17 431.34 558.82 432.69 560.42 435.79C573.96 459.123 587.457 482.477 600.91 505.85C601.812 507.24 602.309 508.854 602.345 510.512C602.38 512.169 601.952 513.803 601.11 515.23H601.18ZM545 514.36C537.77 516.55 538.26 527.7 545 530.08C550.38 532.35 556.51 527.79 556.59 522.15C556.87 516.33 550.26 512 545 514.36ZM537.69 495.45C542.89 499.54 551.25 495.09 550.93 488.53C551.2 482.91 544.93 478.62 539.77 480.63C533.26 482.31 532.1 492 537.66 495.45H537.69ZM760.3 422.63C746.86 445.963 733.393 469.297 719.9 492.63C719.081 494.1 717.871 495.315 716.405 496.141C714.938 496.967 713.272 497.372 711.59 497.31C703.73 497.21 695.85 497.56 688 497.13C668.88 496.94 649.75 497.13 630.64 497.02C629.137 497.008 627.666 496.587 626.385 495.801C625.104 495.015 624.061 493.894 623.37 492.56C609.883 469.227 596.4 445.873 582.92 422.5C582.057 421.115 581.615 419.51 581.647 417.878C581.679 416.247 582.184 414.66 583.1 413.31C596.433 390.183 609.79 367.053 623.17 343.92C623.829 342.512 624.87 341.318 626.175 340.472C627.48 339.627 628.996 339.166 630.55 339.14C650.3 339.06 670.05 339.14 689.81 339.14C697.37 339.04 704.94 339.14 712.5 339.09C715.73 338.8 718.66 341.09 720.07 343.84C733.403 366.947 746.737 390.067 760.07 413.2C761.028 414.577 761.558 416.207 761.594 417.885C761.63 419.562 761.169 421.213 760.27 422.63H760.3ZM693.48 372.21C687.18 372.74 683.71 381.21 688.11 385.89C691.67 390.8 700.11 389.62 702.32 384.05C705.14 378.36 699.75 371.05 693.45 372.21H693.48Z" fill="white"/>
</g>
<defs>
<clipPath id="clip0_2_1764">
<rect width="1024" height="1024" fill="white"/>
</clipPath>
</defs>
</svg>

<svg xmlns="http://www.w3.org/2000/svg" viewBox="0 0 1024 1024">
   <circle cx="512" cy="512" r="512" style="fill:#0396fd"/>
   <path d="M471.11 250h84.09a10.2 10.2 0 0 1 5.87 5.14q20 34.73 40.07 69.43a8.86 8.86 0 0 1-.26 9.29c-13.53 23.35-26.95 46.78-40.53 70.12-1.82 3.44-6 4.43-9.56 4.21q-39.45-.28-78.9-.25a8.41 8.41 0 0 1-7.84-4.6q-20.05-34.77-40.16-69.57a8.44 8.44 0 0 1-.14-9.31q20.19-35 40.42-70a8.43 8.43 0 0 1 6.94-4.46zM464 620.7q-20.1 34.74-40.15 69.53a8.47 8.47 0 0 0-.15 9.28c13.18 22.91 26.47 45.78 39.64 68.7 1.44 3.09 4.23 5.68 7.8 5.78h84.16a10.17 10.17 0 0 0 5.32-4.45q20.28-35 40.47-70.06a8.91 8.91 0 0 0-.24-9.38c-13.52-23.32-26.92-46.71-40.47-70-1.8-3.47-5.93-4.51-9.54-4.28-26.28.17-52.56.3-78.86.24a8.42 8.42 0 0 0-7.98 4.64zm-22.34-207.27L401.58 344c-1.39-2.71-4.14-5.13-7.34-5h-23.67c-19.44.1-38.87 0-58.31.05a8.28 8.28 0 0 0-7.58 4.57l-40.52 70.22a8.35 8.35 0 0 0 .31 8.87q20.2 35 40.43 70a8.3 8.3 0 0 0 7.45 4.26c19.13.11 38.26-.12 57.37.12 7.49.35 15 0 22.48.15 3.37.13 7.05-1.06 8.75-4.18q20.46-35.26 40.79-70.59a8.45 8.45 0 0 0-.08-9.04zM441 605.77q-20 34.82-40.12 69.55a8.76 8.76 0 0 1-7.79 5c-7.53.13-15.08 0-22.61 0-19.69-.48-39.41 0-59.11-.24a8.24 8.24 0 0 1-7.14-4.29q-20.25-35-40.43-70a8.47 8.47 0 0 1 0-9.28q20-34.71 40.1-69.43a8.34 8.34 0 0 1 7.47-4.87c15.84-.09 31.67 0 47.51 0h11.58c6.59.06 13.18 0 19.76 0h3.99c3 0 5.29 2.27 6.65 4.7 13.31 23.15 26.72 46.25 40 69.4a8.6 8.6 0 0 1 .14 9.46zm-131.34-20.6c-5.23 2.52-6.24 10.49-1.6 14.08 4.68 4.28 13.36 1 13.78-5.38 1.08-6.41-6.46-11.87-12.2-8.7zm25.52-30.81c-6.07 2-7.27 11.15-2 14.65 4.51 3.62 12.09 1 13.19-4.74 2.02-6.27-5.2-12.62-11.21-9.91zm266-39.13q-20.2 35-40.45 70.05c-1.39 2.35-3.83 4.43-6.67 4.47h-23.73c-19.45-.1-38.89 0-58.34-.06a8.34 8.34 0 0 1-7.69-4.34q-20.31-35.11-40.57-70.25a8.38 8.38 0 0 1 .16-9.07L464 436.46a8.27 8.27 0 0 1 7-4.66c19.42-.16 38.86.11 58.28-.13 7.5-.38 15-.05 22.54-.17 3.35-.16 7 1.19 8.6 4.29q20.31 35 40.49 70.06a8.91 8.91 0 0 1 .2 9.38zm-56.18-.87c-7.23 2.19-6.74 13.34 0 15.72 5.38 2.27 11.51-2.29 11.59-7.93.28-5.82-6.33-10.15-11.59-7.79zm-7.31-18.91c5.2 4.09 13.56-.36 13.24-6.92.27-5.62-6-9.91-11.16-7.9-6.51 1.68-7.67 11.37-2.11 14.82zm222.61-72.82q-20.16 35-40.4 70a9.13 9.13 0 0 1-8.31 4.68c-7.86-.1-15.74.25-23.59-.18-19.12-.19-38.25 0-57.36-.11a8.26 8.26 0 0 1-7.27-4.46q-20.23-35-40.45-70.06a8.43 8.43 0 0 1 .18-9.19q20-34.69 40.07-69.39a8.3 8.3 0 0 1 7.38-4.78c19.75-.08 39.5 0 59.26 0 7.56-.1 15.13 0 22.69-.05 3.23-.29 6.16 2 7.57 4.75q20 34.66 40 69.36a8.52 8.52 0 0 1 .2 9.43zm-66.82-50.42c-6.3.53-9.77 9-5.37 13.68 3.56 4.91 12 3.73 14.21-1.84 2.82-5.69-2.57-13-8.87-11.84z" style="fill:#fff"/>
</svg>
